!!!OTL: Xingfuhe kai xingfuhua
!!!ARE: Asia, China,ÿJiangsu Yancheng
!! III, 448
!!!SCT: C1803
!!!YEM: Copyright 1995, estate of Helmut Schaffrath.
**kern
*ICvox
*Ivox
*M4/4
*k[b-e-]
*B-:
{8dd
8ff
8dd
16dd
16cc
8b-
8dd
4cc}
=1
{4.f
8g
8.f
16g
4b-}
=2
{8dd
16dd
16cc
8b-
16b-
16g
4b-
4dd}
=3
{4.cc
8g
4b-
4b-}
=4
{8cc
8cc
8a
8g
8f
8a
4g}
=5
{4.f
8g
8.f
16g
4b-}
=6
{8dd
16dd
16cc
8b-
16b-
16g
4b-
4dd}
=7
{4.cc
8g
4b-
4b-}
==
!!!AGN: Haozi, Dawo haozi
!!!AMT: simple quadruple
!!!AIN: vox
!!!EED: Helmut Schaffrath
!!!EEV: 1.0
*-
